svg/fluentui-system-icons/ic_fluent_square_eraser_20_regular.svg

<svg width="20" height="20" viewBox="0 0 20 20" fill="none" xmlns="http://www.w3.org/2000/svg">
<path d="M8.081 16H6C5.46957 16 4.96086 15.7893 4.58578 15.4142C4.21071 15.0391 4 14.5304 4 14V6C4 5.46957 4.21071 4.96086 4.58578 4.58579C4.96086 4.21071 5.46957 4 6 4H14C14.5304 4 15.0391 4.21071 15.4142 4.58579C15.7893 4.96086 16 5.46957 16 6V8.079C16.3681 8.16986 16.7103 8.34438 17 8.589V6C17 5.20435 16.6839 4.44129 16.1213 3.87868C15.5587 3.31607 14.7956 3 14 3H6C5.20435 3 4.44129 3.31607 3.87868 3.87868C3.31607 4.44129 3 5.20435 3 6V14C3 14.7956 3.31607 15.5587 3.87868 16.1213C4.44129 16.6839 5.20435 17 6 17H8.591C8.34662 16.7101 8.17213 16.368 8.081 16ZM9.43901 16.466C9.29962 16.3267 9.18904 16.1613 9.1136 15.9793C9.03816 15.7972 8.99933 15.6021 8.99933 15.405C8.99933 15.2079 9.03816 15.0128 9.1136 14.8308C9.18904 14.6487 9.29962 14.4833 9.43901 14.344L14.339 9.44401C14.4783 9.30462 14.6437 9.19405 14.8258 9.11861C15.0078 9.04316 15.2029 9.00433 15.4 9.00433C15.5971 9.00433 15.7922 9.04316 15.9743 9.11861C16.1563 9.19405 16.3217 9.30462 16.461 9.44401L18.556 11.544C18.6954 11.6833 18.806 11.8487 18.8814 12.0308C18.9569 12.2128 18.9957 12.4079 18.9957 12.605C18.9957 12.8021 18.9569 12.9972 18.8814 13.1793C18.806 13.3613 18.6954 13.5267 18.556 13.666L14.216 18H16.747C16.8796 18 17.0068 18.0527 17.1006 18.1465C17.1943 18.2402 17.247 18.3674 17.247 18.5C17.247 18.6326 17.1943 18.7598 17.1006 18.8536C17.0068 18.9473 16.8796 19 16.747 19H12.655C12.448 19.0084 12.2416 18.9738 12.0487 18.8984C11.8557 18.823 11.6805 18.7085 11.534 18.562L9.43901 16.466ZM15.051 10.147L11.451 13.747L14.251 16.547L17.851 12.947C17.8976 12.9006 17.9345 12.8454 17.9597 12.7846C17.9849 12.7239 17.9979 12.6588 17.9979 12.593C17.9979 12.5272 17.9849 12.4621 17.9597 12.4014C17.9345 12.3406 17.8976 12.2855 17.851 12.239L15.756 10.144C15.6619 10.0513 15.535 9.99955 15.4029 10.0001C15.2708 10.0007 15.1443 10.0535 15.051 10.147ZM13.551 17.255L10.751 14.455L10.151 15.055C10.1044 15.1015 10.0675 15.1566 10.0423 15.2174C10.0171 15.2781 10.0041 15.3432 10.0041 15.409C10.0041 15.4748 10.0171 15.5399 10.0423 15.6006C10.0675 15.6614 10.1044 15.7166 10.151 15.763L12.246 17.858C12.2925 17.9046 12.3476 17.9415 12.4084 17.9667C12.4691 17.9919 12.5342 18.0049 12.6 18.0049C12.6658 18.0049 12.7309 17.9919 12.7916 17.9667C12.8524 17.9415 12.9076 17.9046 12.954 17.858L13.551 17.255Z" fill="#212121"/>
</svg>

<svg xmlns="http://www.w3.org/2000/svg" width="20" height="20"><path d="M8.081 16H6a2 2 0 0 1-2-2V6a2 2 0 0 1 2-2h8a2 2 0 0 1 2 2v2.079c.368.09.71.265 1 .51V6a3 3 0 0 0-3-3H6a3 3 0 0 0-3 3v8a3 3 0 0 0 3 3h2.591a2.474 2.474 0 0 1-.51-1Zm1.358.466a1.5 1.5 0 0 1 0-2.122l4.9-4.9a1.5 1.5 0 0 1 2.122 0l2.095 2.1a1.499 1.499 0 0 1 0 2.122L14.216 18h2.531a.5.5 0 0 1 0 1h-4.092a1.498 1.498 0 0 1-1.121-.438l-2.095-2.096Zm5.612-6.319-3.6 3.6 2.8 2.8 3.6-3.6a.498.498 0 0 0 0-.708l-2.095-2.095a.5.5 0 0 0-.705.003Zm-1.5 7.108-2.8-2.8-.6.6a.5.5 0 0 0 0 .708l2.095 2.095a.5.5 0 0 0 .708 0l.597-.603Z"/></svg>
